icons/round/editor/ic_bar_chart_24px.svg

<svg xmlns="http://www.w3.org/2000/svg" height="24" viewBox="0 0 24 24" width="24"><path d="M0 0h24v24H0V0z" fill="none"/><path d="M6.4 9.2h.2c.77 0 1.4.63 1.4 1.4v7c0 .77-.63 1.4-1.4 1.4h-.2c-.77 0-1.4-.63-1.4-1.4v-7c0-.77.63-1.4 1.4-1.4zM12 5c.77 0 1.4.63 1.4 1.4v11.2c0 .77-.63 1.4-1.4 1.4-.77 0-1.4-.63-1.4-1.4V6.4c0-.77.63-1.4 1.4-1.4zm5.6 8c.77 0 1.4.63 1.4 1.4v3.2c0 .77-.63 1.4-1.4 1.4-.77 0-1.4-.63-1.4-1.4v-3.2c0-.77.63-1.4 1.4-1.4z"/></svg>

<svg xmlns="http://www.w3.org/2000/svg" enable-background="new 0 0 24 24" height="24" viewBox="0 0 24 24" width="24"><g><rect fill="none" height="24" width="24"/></g><g><g><g><path d="M6.4,9.2h0.2C7.37,9.2,8,9.83,8,10.6v7C8,18.37,7.37,19,6.6,19H6.4C5.63,19,5,18.37,5,17.6v-7C5,9.83,5.63,9.2,6.4,9.2z M12,5L12,5c0.77,0,1.4,0.63,1.4,1.4v11.2c0,0.77-0.63,1.4-1.4,1.4l0,0c-0.77,0-1.4-0.63-1.4-1.4V6.4C10.6,5.63,11.23,5,12,5z M17.6,13L17.6,13c0.77,0,1.4,0.63,1.4,1.4v3.2c0,0.77-0.63,1.4-1.4,1.4l0,0c-0.77,0-1.4-0.63-1.4-1.4v-3.2 C16.2,13.63,16.83,13,17.6,13z"/></g></g></g></svg>
